src/components/LandingPage/images/SocialProofLogos/grafana.svg

<svg xmlns="http://www.w3.org/2000/svg" width="127" height="30" fill="none" viewBox="0 0 127 30"><g clip-path="url(#clip0)" opacity=".4"><path fill="#E6E7E8" d="M51.9783 16.1711C51.7719 21.4034 47.6493 25.4776 42.517 25.4776C37.1041 25.4776 33.0815 21.0969 33.0815 15.8098C33.0815 10.4743 37.4396 6.09045 42.7493 6.09045C45.1461 6.09045 47.4912 7.12271 49.4783 8.97755L47.9332 10.884C46.4138 9.56787 44.5815 8.66787 42.7525 8.66787C38.859 8.66787 35.6654 11.8646 35.6654 15.8066C35.6654 19.8034 38.6815 22.8969 42.5235 22.8969C45.9783 22.8969 48.6848 20.3711 49.2267 17.1227H41.3912V14.8292H51.9848V16.1711H51.9783Z"/><path fill="#E6E7E8" d="M60.9717 14.9098H59.5265C57.933 14.9098 56.6394 16.2034 56.6394 17.7969V25.3227H54.062V12.4356H56.1749V13.5195C56.8717 12.8227 57.9782 12.4356 59.2169 12.4356H62.0007L60.9717 14.9098Z"/><path fill="#E6E7E8" d="M75.0201 25.3227H72.8298V23.7001C71.1362 25.3549 68.462 26.1485 65.7556 24.9614C63.7491 24.0807 62.2556 22.2517 61.8588 20.0936C61.0911 15.9259 64.2975 12.2291 68.3943 12.2291C70.1201 12.2291 71.6685 12.9259 72.8008 14.0582V12.4356H75.0169V25.3227H75.0201ZM72.3814 19.8065C72.9911 17.1872 71.0072 14.8065 68.4201 14.8065C66.1782 14.8065 64.3717 16.6356 64.3717 18.8549C64.3717 21.3614 66.5749 23.3033 69.1395 22.8646C70.7201 22.5936 72.0201 21.3678 72.3814 19.8065Z"/><path fill="#E6E7E8" d="M80.2137 11.7131V12.4357H84.3137V14.7034H80.2137V25.3228H77.6621V11.7905C77.6621 8.95502 79.6976 7.28082 82.2492 7.28082H85.3428L84.3105 9.7034H82.2492C81.117 9.7034 80.2137 10.6034 80.2137 11.7131Z"/><path fill="#E6E7E8" d="M97.9752 25.3227H95.7848V23.7001C94.0913 25.3549 91.4171 26.1485 88.7107 24.9614C86.7042 24.0807 85.2107 22.2517 84.8139 20.0936C84.0462 15.9259 87.2526 12.2291 91.3494 12.2291C93.0752 12.2291 94.6235 12.9259 95.7558 14.0582V12.4356H97.9719V25.3227H97.9752ZM95.3397 19.8065C95.9493 17.1872 93.9655 14.8065 91.3784 14.8065C89.1365 14.8065 87.33 16.6356 87.33 18.8549C87.33 21.3614 89.5332 23.3033 92.0977 22.8646C93.6784 22.5936 94.9752 21.3678 95.3397 19.8065Z"/><path fill="#E6E7E8" d="M111.743 17.6937V25.3227H109.166V17.6937C109.166 16.0969 107.849 14.8066 106.278 14.8066C104.656 14.8066 103.366 16.0969 103.366 17.6937V25.3227H100.788V12.4356H102.927V13.5453C103.856 12.7195 105.091 12.2324 106.382 12.2324C109.372 12.2291 111.743 14.6775 111.743 17.6937Z"/><path fill="#E6E7E8" d="M126.901 25.3227H124.711V23.7001C123.017 25.3549 120.343 26.1485 117.636 24.9614C115.63 24.0807 114.136 22.2517 113.74 20.0936C112.972 15.9259 116.178 12.2291 120.275 12.2291C122.001 12.2291 123.549 12.9259 124.682 14.0582V12.4356H126.898V25.3227H126.901ZM124.265 19.8065C124.875 17.1872 122.891 14.8065 120.304 14.8065C118.062 14.8065 116.256 16.6356 116.256 18.8549C116.256 21.3614 118.459 23.3033 121.024 22.8646C122.604 22.5936 123.901 21.3678 124.265 19.8065Z"/><path fill="#fff" d="M27.7007 13.2259C27.6555 12.7227 27.5684 12.1421 27.4007 11.5001C27.2329 10.8614 26.9845 10.1614 26.6265 9.43238C26.2619 8.7098 25.7877 7.95496 25.1748 7.22593C24.9361 6.93883 24.6748 6.65819 24.391 6.38077C24.8136 4.70335 23.8781 3.25173 23.8781 3.25173C22.2652 3.15173 21.2394 3.75173 20.8587 4.02915C20.7942 4.00335 20.7329 3.97432 20.6684 3.94851C20.3942 3.83561 20.1103 3.73238 19.82 3.64206C19.5297 3.55173 19.2329 3.46786 18.9297 3.39367C18.6265 3.3227 18.3168 3.26141 18.0039 3.21302C17.949 3.20335 17.8942 3.1969 17.8394 3.19044C17.1361 0.938832 15.1136 0.00012207 15.1136 0.00012207C12.8619 1.42915 12.4329 3.42915 12.4329 3.42915C12.4329 3.42915 12.4232 3.47432 12.4103 3.54851C12.2845 3.58399 12.1619 3.61948 12.0361 3.65819C11.8619 3.7098 11.6942 3.77432 11.52 3.83561C11.349 3.90335 11.1781 3.96786 11.0071 4.04206C10.6684 4.18722 10.3297 4.35173 10.0006 4.53561C9.68129 4.71625 9.36839 4.91302 9.06194 5.12593C9.01678 5.10657 8.98452 5.09044 8.98452 5.09044C5.86516 3.90012 3.09419 5.33238 3.09419 5.33238C2.84258 8.65173 4.33935 10.7421 4.63613 11.1195C4.56193 11.3259 4.49419 11.5324 4.42968 11.7421C4.19742 12.4937 4.02645 13.2646 3.92 14.0646C3.90387 14.1775 3.89097 14.2937 3.87806 14.4098C0.997417 15.8324 0.142578 18.7517 0.142578 18.7517C2.54903 21.5195 5.35226 21.6904 5.35226 21.6904C5.35548 21.6872 5.35871 21.6872 5.35871 21.684C5.71677 22.3195 6.12968 22.9259 6.59097 23.4904C6.78452 23.7259 6.99097 23.955 7.20065 24.1743C6.32323 26.6808 7.32323 28.7711 7.32323 28.7711C10.0006 28.8711 11.7619 27.6001 12.1297 27.3066C12.3974 27.3969 12.6652 27.4775 12.9394 27.5485C13.7619 27.7614 14.6039 27.884 15.4458 27.9227C15.6555 27.9324 15.8652 27.9356 16.0781 27.9356H16.1813L16.249 27.9324L16.3813 27.9292L16.5136 27.9227L16.5168 27.9259C17.7781 29.7259 19.9974 29.9808 19.9974 29.9808C21.5748 28.3162 21.6652 26.6679 21.6652 26.3098C21.6652 26.3098 21.6652 26.2969 21.6652 26.2872C21.6652 26.2582 21.6652 26.2356 21.6652 26.2356C21.6652 26.2098 21.6619 26.1872 21.6619 26.1582C21.9942 25.9259 22.3103 25.6775 22.6071 25.4098C23.2394 24.8388 23.791 24.1872 24.249 23.4872C24.291 23.4227 24.3329 23.355 24.3748 23.2872C26.1619 23.3904 27.42 22.1808 27.42 22.1808C27.1232 20.3195 26.0619 19.413 25.8426 19.2388C25.8426 19.2388 25.8329 19.2324 25.82 19.2227C25.8071 19.213 25.8007 19.2066 25.8007 19.2066C25.7878 19.2001 25.7748 19.1904 25.7619 19.1808C25.7716 19.0679 25.7813 18.9582 25.7878 18.8453C25.8007 18.6453 25.8071 18.4453 25.8071 18.2453V18.0969V18.0227V17.984C25.8071 17.9324 25.8071 17.9517 25.8071 17.9324L25.8007 17.8066L25.791 17.6388C25.7878 17.5808 25.7845 17.5292 25.7781 17.4775C25.7748 17.4259 25.7684 17.3743 25.7619 17.3227L25.7426 17.1679L25.72 17.013C25.691 16.8098 25.649 16.6066 25.6039 16.4033C25.4168 15.6001 25.1039 14.8388 24.691 14.155C24.2781 13.4711 23.7619 12.8646 23.1845 12.355C22.6039 11.8421 21.9555 11.4324 21.2748 11.1259C20.5942 10.8195 19.8781 10.6227 19.1652 10.5324C18.8103 10.4872 18.4523 10.4679 18.1006 10.4711L17.9684 10.4743H17.9361C17.9265 10.4743 17.8877 10.4743 17.891 10.4743L17.8361 10.4775L17.7071 10.4872C17.6587 10.4904 17.6071 10.4937 17.5619 10.5001C17.3813 10.5162 17.2007 10.5421 17.0265 10.5775C16.32 10.7098 15.6523 10.9646 15.0619 11.3163C14.4748 11.6679 13.9619 12.1098 13.5458 12.6066C13.1297 13.1066 12.8071 13.6582 12.5845 14.2292C12.3619 14.8001 12.2394 15.3904 12.2039 15.9646C12.1942 16.1066 12.191 16.2517 12.1942 16.3904C12.1942 16.4259 12.1942 16.4614 12.1974 16.4969L12.2006 16.613C12.2071 16.6808 12.2103 16.7517 12.2168 16.8195C12.2458 17.1098 12.2974 17.3872 12.3748 17.6582C12.5297 18.1937 12.7781 18.6808 13.0877 19.0937C13.3942 19.5066 13.7619 19.8485 14.1523 20.1162C14.5426 20.384 14.9587 20.5743 15.3716 20.6937C15.7845 20.8162 16.1942 20.8679 16.5813 20.8679C16.6297 20.8679 16.6781 20.8679 16.7265 20.8646C16.7523 20.8646 16.7781 20.8614 16.8039 20.8614C16.8297 20.8614 16.8555 20.8582 16.8813 20.8582C16.9232 20.855 16.9619 20.8485 17.0039 20.8453C17.0136 20.8453 17.0265 20.8421 17.0394 20.8421L17.0781 20.8356C17.1039 20.8324 17.1265 20.8292 17.1523 20.8259C17.2039 20.8195 17.2458 20.8098 17.2942 20.8001C17.3394 20.7904 17.3845 20.784 17.4297 20.7711C17.52 20.7517 17.6039 20.7259 17.6877 20.6969C17.8555 20.6421 18.0136 20.5743 18.1619 20.5001C18.3103 20.4227 18.4458 20.3388 18.5716 20.2517C18.6071 20.2259 18.6426 20.2001 18.6781 20.1711C18.8136 20.0646 18.8361 19.8679 18.7265 19.7356C18.6329 19.6195 18.4684 19.5904 18.3394 19.6614C18.3071 19.6775 18.2748 19.6969 18.2426 19.713C18.1297 19.7679 18.0136 19.8162 17.8877 19.8582C17.7619 19.8969 17.6329 19.9292 17.4974 19.955C17.4297 19.9646 17.3619 19.9743 17.291 19.9808C17.2555 19.984 17.22 19.9872 17.1877 19.9872C17.1523 19.9872 17.1168 19.9904 17.0845 19.9904C17.0523 19.9904 17.0168 19.9904 16.9845 19.9872C16.9426 19.984 16.9006 19.984 16.8587 19.9808C16.8587 19.9808 16.8361 19.9808 16.8555 19.9808H16.8426L16.8136 19.9775C16.7942 19.9743 16.7748 19.9743 16.7587 19.9711C16.72 19.9679 16.6845 19.9614 16.6458 19.9582C16.3426 19.9162 16.0361 19.8292 15.7426 19.6937C15.4458 19.5614 15.1619 19.3743 14.9071 19.1453C14.6523 18.9162 14.4297 18.6388 14.2555 18.3259C14.0813 18.013 13.9587 17.6679 13.9006 17.3033C13.8716 17.1227 13.8587 16.9324 13.8652 16.7485C13.8684 16.6969 13.8684 16.6485 13.8716 16.5969C13.8716 16.6098 13.8716 16.5904 13.8716 16.5872V16.5679L13.8748 16.5292C13.8781 16.5033 13.8781 16.4808 13.8813 16.455C13.891 16.355 13.9071 16.255 13.9232 16.155C14.0619 15.3614 14.4587 14.5872 15.0748 14.0001C15.2297 13.855 15.3942 13.7162 15.5716 13.5969C15.749 13.4743 15.9361 13.3679 16.1297 13.2775C16.3265 13.1872 16.5297 13.113 16.7394 13.0582C16.949 13.0033 17.1652 12.9646 17.3813 12.9453C17.491 12.9356 17.6006 12.9324 17.7103 12.9324C17.7394 12.9324 17.7619 12.9324 17.7845 12.9324L17.8748 12.9356L17.9297 12.9388C17.9523 12.9388 17.9297 12.9388 17.9394 12.9388H17.9619L18.0523 12.9453C18.2877 12.9646 18.5232 12.9969 18.7555 13.0517C19.22 13.155 19.6716 13.3259 20.0942 13.5582C20.9361 14.0259 21.6555 14.755 22.0942 15.6356C22.3168 16.0743 22.4716 16.5453 22.549 17.0324C22.5684 17.155 22.5813 17.2775 22.591 17.4001L22.5974 17.4937L22.6007 17.5872C22.6039 17.6195 22.6039 17.6485 22.6039 17.6808C22.6039 17.713 22.6071 17.7453 22.6039 17.7679V17.8485L22.6007 17.9388C22.5974 18.0001 22.5942 18.0969 22.591 18.1582C22.5813 18.2937 22.5684 18.4259 22.5523 18.5614C22.5361 18.6937 22.5136 18.8259 22.491 18.9582C22.4652 19.0904 22.4361 19.2195 22.4039 19.3485C22.3394 19.6066 22.2555 19.8646 22.1555 20.113C21.9587 20.613 21.6942 21.0872 21.3781 21.5259C20.7426 22.4001 19.8748 23.113 18.8877 23.5646C18.3942 23.7872 17.8716 23.9517 17.3394 24.0388C17.0716 24.084 16.8006 24.1098 16.5297 24.1195L16.4781 24.1227H16.4361H16.349H16.2168H16.149C16.1845 24.1227 16.1426 24.1227 16.1458 24.1227H16.12C15.9748 24.1195 15.8297 24.113 15.6845 24.1001C15.1039 24.0582 14.5329 23.955 13.9781 23.7937C13.4232 23.6324 12.8845 23.4162 12.3748 23.1453C11.3555 22.6001 10.4458 21.855 9.7329 20.955C9.37484 20.5066 9.06194 20.0259 8.80387 19.5195C8.54581 19.013 8.34258 18.4808 8.19097 17.9388C8.04258 17.3937 7.94903 16.8388 7.91355 16.2775L7.9071 16.1711L7.90387 16.1453V16.1227V16.0775L7.90065 15.984V15.9614V15.9292V15.8646L7.89742 15.7356V15.7098C7.89742 15.713 7.89742 15.713 7.89742 15.7001V15.6485C7.89742 15.5808 7.90065 15.513 7.90065 15.4421C7.91032 15.1646 7.9329 14.8808 7.97161 14.5969C8.0071 14.313 8.05548 14.0259 8.11355 13.7421C8.17161 13.4582 8.24258 13.1775 8.32 12.9033C8.47807 12.3517 8.67484 11.8163 8.91032 11.3098C9.37807 10.2969 9.99097 9.40335 10.7297 8.68722C10.9136 8.50657 11.1039 8.33561 11.3039 8.17754C11.5006 8.01948 11.7071 7.87109 11.92 7.73238C12.1297 7.59367 12.349 7.46464 12.5748 7.34851C12.6845 7.28722 12.8006 7.23561 12.9136 7.18077C12.9716 7.15496 13.0297 7.12915 13.0877 7.10335C13.1458 7.07754 13.2039 7.05173 13.2619 7.02915C13.4942 6.92915 13.7361 6.84851 13.9781 6.77109C14.0394 6.75173 14.1006 6.73561 14.1619 6.71625C14.2232 6.6969 14.2845 6.68399 14.3458 6.66464C14.4684 6.62915 14.5942 6.60012 14.7168 6.57109C14.7781 6.55496 14.8426 6.54206 14.9039 6.52915C14.9652 6.51625 15.0297 6.50335 15.091 6.49044C15.1555 6.47754 15.2168 6.46786 15.2813 6.45496L15.3748 6.43883L15.4684 6.42593C15.5329 6.41625 15.5942 6.40657 15.6587 6.3969C15.7297 6.38399 15.8006 6.38077 15.8716 6.36786C15.9297 6.36141 16.0265 6.34851 16.0845 6.34206C16.1297 6.33883 16.1748 6.33238 16.22 6.32915L16.3103 6.31948L16.3555 6.31625L16.4071 6.31302C16.4781 6.3098 16.549 6.30335 16.6232 6.30012L16.7297 6.29367C16.7297 6.29367 16.7684 6.29367 16.7361 6.29367H16.7587L16.8039 6.29044C16.8652 6.28722 16.9265 6.28399 16.9877 6.28077C17.2297 6.27431 17.4716 6.27431 17.7136 6.28077C18.1942 6.30012 18.6652 6.35173 19.1232 6.43883C20.0394 6.6098 20.9007 6.90335 21.6813 7.29044C22.4619 7.67109 23.1619 8.14206 23.7684 8.65173C23.8071 8.68399 23.8426 8.71625 23.8813 8.74851C23.9168 8.78077 23.9555 8.81302 23.991 8.84528C24.0652 8.9098 24.1361 8.97754 24.2071 9.04206C24.2781 9.10657 24.3458 9.17431 24.4136 9.24206C24.4813 9.3098 24.549 9.37754 24.6103 9.44528C24.8684 9.71948 25.1071 9.99367 25.32 10.2711C25.7523 10.8259 26.0974 11.3872 26.3716 11.9162C26.3877 11.9485 26.4071 11.9808 26.4232 12.0162C26.4394 12.0485 26.4555 12.0808 26.4716 12.1163C26.5039 12.1808 26.5361 12.2453 26.5652 12.3098C26.5942 12.3743 26.6265 12.4388 26.6523 12.5001C26.6813 12.5646 26.7071 12.6259 26.7329 12.6872C26.8361 12.9356 26.9297 13.1711 27.0039 13.3937C27.1297 13.7517 27.2232 14.0775 27.2942 14.3614C27.3232 14.4743 27.4297 14.5485 27.5458 14.5388C27.6652 14.5292 27.7587 14.4292 27.7619 14.3098C27.7426 13.9872 27.7361 13.6324 27.7007 13.2259Z"/></g><defs><clipPath id="clip0"><rect width="126.774" height="30" fill="#fff" transform="translate(0.142578 0.00012207)"/></clipPath></defs></svg>

<svg fill="none" viewBox="0 0 127 30"><g clip-path="url(#clip0)" opacity=".4"><path fill="#E6E7E8" d="M51.978 16.171c-.206 5.232-4.329 9.307-9.461 9.307-5.413 0-9.436-4.381-9.436-9.668 0-5.336 4.359-9.72 9.668-9.72 2.397 0 4.742 1.033 6.73 2.888l-1.546 1.906c-1.52-1.316-3.352-2.216-5.18-2.216-3.894 0-7.088 3.197-7.088 7.139 0 3.996 3.017 7.09 6.858 7.09 3.455 0 6.162-2.526 6.704-5.774H41.39v-2.294h10.594v1.342h-.007zm8.994-1.261h-1.446a2.888 2.888 0 00-2.887 2.887v7.526h-2.577V12.436h2.113v1.084c.697-.697 1.803-1.084 3.042-1.084H62l-1.03 2.474zM75.02 25.323h-2.19V23.7c-1.694 1.655-4.368 2.448-7.074 1.261-2.007-.88-3.5-2.71-3.897-4.867-.768-4.168 2.438-7.865 6.535-7.865 1.726 0 3.274.697 4.407 1.83v-1.623h2.216v12.887h.003zm-2.639-5.517c.61-2.619-1.374-5-3.96-5a4.055 4.055 0 00-4.05 4.049 4.045 4.045 0 004.769 4.01 4.062 4.062 0 003.241-3.058zm7.833-8.093v.723h4.1v2.267h-4.1v10.62h-2.552V11.79c0-2.835 2.036-4.51 4.587-4.51h3.094L84.31 9.704h-2.062c-1.132 0-2.035.9-2.035 2.01zm17.761 13.61h-2.19V23.7c-1.694 1.655-4.368 2.448-7.074 1.261-2.007-.88-3.5-2.71-3.897-4.867-.768-4.168 2.439-7.865 6.535-7.865 1.726 0 3.275.697 4.407 1.83v-1.623h2.216v12.887h.003zm-2.635-5.517c.61-2.619-1.374-5-3.962-5a4.055 4.055 0 00-4.048 4.049 4.045 4.045 0 004.768 4.01 4.066 4.066 0 003.242-3.058zm16.403-2.112v7.629h-2.577v-7.63a2.902 2.902 0 00-2.888-2.886 2.89 2.89 0 00-2.912 2.887v7.629h-2.578V12.436h2.139v1.11a5.225 5.225 0 013.455-1.314c2.99-.003 5.361 2.446 5.361 5.462zm15.158 7.629h-2.19V23.7c-1.694 1.655-4.368 2.448-7.075 1.261-2.006-.88-3.5-2.71-3.896-4.867-.768-4.168 2.438-7.865 6.535-7.865 1.726 0 3.274.697 4.407 1.83v-1.623h2.216v12.887h.003zm-2.636-5.517c.61-2.619-1.374-5-3.961-5a4.055 4.055 0 00-4.048 4.049 4.045 4.045 0 004.768 4.01 4.065 4.065 0 003.241-3.058z"/><path fill="#fff" d="M27.7 13.226a10.523 10.523 0 00-.3-1.726 11.094 11.094 0 00-.773-2.068 11.425 11.425 0 00-2.236-3.051c.423-1.678-.513-3.13-.513-3.13-1.613-.1-2.639.5-3.02.778-.064-.026-.125-.055-.19-.08a10.16 10.16 0 00-.848-.307c-.29-.09-.587-.174-.89-.248a12.352 12.352 0 00-.926-.181c-.055-.01-.11-.016-.165-.023C17.136.94 15.114 0 15.114 0c-2.252 1.43-2.681 3.43-2.681 3.43s-.01.044-.023.119c-.126.035-.248.07-.374.11-.174.05-.342.115-.516.177-.171.067-.342.132-.513.206a10.63 10.63 0 00-1.946 1.084l-.076-.036c-3.12-1.19-5.89.242-5.89.242-.252 3.32 1.244 5.41 1.541 5.788a14.167 14.167 0 00-.716 2.945c-.016.112-.029.229-.042.345C.998 15.832.143 18.752.143 18.752c2.406 2.768 5.21 2.938 5.21 2.938.002-.003.006-.003.006-.006.358.636.77 1.242 1.232 1.806.194.236.4.465.61.684-.878 2.507.122 4.597.122 4.597 2.678.1 4.439-1.17 4.807-1.464.267.09.535.17.81.242a12.254 12.254 0 003.138.387h.103l.068-.004.132-.003.133-.006.003.003c1.261 1.8 3.48 2.055 3.48 2.055 1.578-1.665 1.668-3.313 1.668-3.671v-.074c0-.026-.003-.049-.003-.078a9.74 9.74 0 00.945-.748 9.89 9.89 0 001.768-2.123c1.787.103 3.045-1.106 3.045-1.106-.297-1.861-1.358-2.768-1.577-2.942l-.023-.016a.199.199 0 01-.02-.016l-.038-.026c.01-.113.02-.223.026-.336.013-.2.02-.4.02-.6v-.313l-.007-.125-.01-.168a2.363 2.363 0 00-.013-.162 2.538 2.538 0 00-.016-.154l-.02-.155-.022-.155a7.77 7.77 0 00-1.029-2.858 7.76 7.76 0 00-1.506-1.8 7.591 7.591 0 00-1.91-1.23 7.425 7.425 0 00-2.11-.593 7.883 7.883 0 00-1.064-.06l-.133.002h-.077l-.055.003-.129.01a4.877 4.877 0 00-.68.09 6.01 6.01 0 00-1.965.74 5.887 5.887 0 00-2.477 2.913 5.768 5.768 0 00-.381 1.735 4.671 4.671 0 00-.007.532l.004.116.016.207a4.47 4.47 0 001.936 3.297c.39.267.806.457 1.219.577.412.122.822.174 1.21.174.048 0 .096 0 .145-.003.025 0 .051-.004.077-.004.026 0 .052-.003.077-.003.042-.003.08-.01.123-.013.01 0 .022-.003.035-.003l.04-.006.073-.01c.052-.006.094-.016.142-.026.045-.01.09-.016.136-.029a3.464 3.464 0 00.732-.271 3.84 3.84 0 00.41-.248l.106-.08a.308.308 0 00-.339-.51c-.032.015-.064.035-.096.051a2.91 2.91 0 01-.355.145 3.63 3.63 0 01-.39.097c-.068.01-.136.02-.207.026a1.192 1.192 0 01-.103.006c-.036 0-.071.003-.104.003-.032 0-.067 0-.1-.003-.041-.003-.083-.003-.125-.006h-.016l-.03-.004c-.019-.003-.038-.003-.054-.006-.039-.003-.075-.01-.113-.013a3.21 3.21 0 01-.903-.264 3.224 3.224 0 01-1.488-1.368 3.108 3.108 0 01-.354-1.023 2.897 2.897 0 01-.036-.555c.003-.051.003-.1.007-.151v-.03l.003-.038.006-.074c.01-.1.026-.2.042-.3a3.935 3.935 0 012.207-2.878c.197-.09.4-.164.61-.219a3.73 3.73 0 01.97-.126h.075l.09.004.055.003h.032l.09.006a5.066 5.066 0 012.042.613 4.913 4.913 0 012 2.078 4.728 4.728 0 01.497 1.764l.006.094.004.093a.915.915 0 01.003.094c0 .032.003.064 0 .087v.08l-.003.09c-.004.062-.007.159-.01.22-.01.136-.023.268-.039.403a8.497 8.497 0 01-.061.397 7.679 7.679 0 01-.087.39 6.49 6.49 0 01-1.026 2.177 6.384 6.384 0 01-2.49 2.04 6.23 6.23 0 01-2.358.554l-.052.004h-.358a6.546 6.546 0 01-.436-.023 8.432 8.432 0 01-5.952-3.145 8.463 8.463 0 01-.928-1.436 8.314 8.314 0 01-.89-3.242l-.007-.106-.003-.026v-.068l-.003-.093v-.119l-.004-.13v-.086c0-.068.004-.136.004-.207.01-.277.032-.561.07-.845a11.232 11.232 0 01.349-1.694c.158-.551.355-1.087.59-1.593.468-1.013 1.081-1.907 1.82-2.623a7.655 7.655 0 011.19-.955c.21-.138.429-.267.655-.383.11-.062.226-.113.339-.168l.174-.078c.058-.025.116-.051.174-.074.232-.1.474-.18.716-.258.061-.02.123-.035.184-.055.061-.02.122-.032.184-.051.122-.036.248-.065.37-.094.062-.016.127-.029.188-.042l.187-.039c.065-.012.126-.022.19-.035l.094-.016.093-.013.19-.03c.072-.012.143-.015.214-.028.058-.007.154-.02.212-.026.046-.003.09-.01.136-.013l.09-.01.046-.003.051-.003c.071-.003.142-.01.216-.013l.107-.006h.029l.045-.004.184-.01a9.614 9.614 0 012.136.158 9.819 9.819 0 012.557.852c.78.381 1.48.852 2.087 1.362.04.032.075.064.113.097.036.032.075.064.11.096.074.065.145.133.216.197.071.065.139.132.207.2.067.068.135.136.196.203a10.865 10.865 0 011.762 2.471c.016.032.035.065.051.1.016.033.033.065.049.1.032.065.064.13.093.194.03.064.061.129.087.19a10.691 10.691 0 01.352.894c.126.358.22.684.29.967a.238.238 0 00.468-.051c-.02-.323-.026-.678-.061-1.084z"/></g><defs><clipPath id="clip0"><path fill="#fff" d="M0 0h126.774v30H0z" transform="translate(.143)"/></clipPath></defs></svg>
